X:1
T:Title
%%score { ( 1 3 ) | ( 2 4 ) }
L:1/8
Q:1/4=100
M:4/4
K:A
V:1 treble nm="Grand Piano"
V:3 treble 
V:2 bass 
V:4 bass 
V:1
 [Ec]3 [DB] [CA][Ec][EB][EA] | F2 A2 E2 A2 | B3 B A2 B2 | c2 [Ec]2 [EB]4 | %4
w: W.~A.~Ogden * * * * *||||
 [Ec]3 [DB] [CA][Ec][EB][EA] | F2 A2 E2 A2 | B3 c [Fd]2 [FB]2 | [EA]2 [DG]2 [CA]4 | B3 c B2 E2 | %9
w: |||||
 [Ec]3 [Fd] [Ec]2 [EA]2 | [Ed]3 [Ed] [Ec][Ec][EB][EA] | B6 z2 | [Ec]3 [DB] [CA][Ec][EB][EA] | %13
w: ||||
 F2 A2 E2 A2 | B3 c [Fd]2 [FB]2 |[M:8/4] [EA]2 [DG]2 [CA]4 z8 |] %16
w: |||
V:2
 [A,,A,]3 [A,,E,] [A,,E,][A,,A,][B,,G,][C,A,] | [D,A,D]2 [F,A,D]2 [A,C]2 [A,C]2 | %2
 [E,G,E]3 [E,G,E] [E,F,E]2 [E,G,E]2 | [A,E]2 [A,,A,]2 [E,G,]4 | %4
 [A,,A,]3 [A,,E,] [A,,E,][A,,A,][B,,G,][C,A,] | [D,A,D]2 [F,A,D]2 [A,C]2 [A,C]2 | %6
 [E,G,E]3 [A,E=G] [D,A,]2 [D,D]2 | [E,C]2 [E,B,]2 [A,,A,]4 | [E,G,E]3 [E,A,E] [E,G,E]2 [E,G,]2 | %9
 [A,,A,]3 [A,,A,] [A,,A,]2 [C,A,]2 | [B,,G,]3 [B,,G,] [A,,A,][A,,A,][C,A,][C,A,] | [G,E]2 z2 z4 | %12
 [A,,A,]3 [A,,E,] [A,,E,][A,,A,][B,,G,][C,A,] | [D,A,D]2 [F,A,D]2 [A,C]2 [A,C]2 | %14
 [E,G,E]3 [A,E=G] [D,A,]2 [D,D]2 |[M:8/4] [E,C]2 [E,B,]2 [A,,A,]4 z8 |] %16
V:3
 x8 | x8 | x8 | x8 | x8 | x8 | x8 | x8 | x8 | x8 | x8 | z2 GF E2 d2 | x8 | x8 | x8 |[M:8/4] x16 |] %16
V:4
 x8 | x8 | x8 | x8 | x8 | x8 | x8 | x8 | x8 | x8 | x8 | E,2- [E,-B,][E,-A,] [E,G,]2 z2 | x8 | x8 | %14
 x8 |[M:8/4] x16 |] %16

